!!!COM: Music21
!!!OTL: Rumba de Rucireixa
!!!OMV: pezas_rumbas_rumba-de-rucireixa_rumba-de-rucireixa-partitura.musicxml
**kern
*I"Bagpipes
*I'Bag
*clefG^2
*k[]
*M2/4
*MM88
=1
!LO:TX:a:t=[quarter]=88
8ggL
16ggL
16ggJJ
8ggL
16eeL
16ddJJ
=
8ccL
16ccL
16ccJJ
8ccL
16eeL
16ffJJ
=
8ggL
16ggL
16ggJJ
8ggL
16ffL
16eeJJ
=
2dd
=
8ffL
16ffL
16ffJJ
8ffL
16ddL
16ccJJ
=
8bL
16bL
16bJJ
8bL
16ccL
16ddJJ
=
8ffL
16ffL
16ffJJ
8ffL
16eeL
16ddJJ
!!linebreak:original
=
2cc
!!linebreak:original
=
8ggL
16ggL
16ggJJ
8ggL
16eeL
16ddJJ
=
8ccL
16ccL
16ccJJ
8ccL
16ddL
16eeJJ
=
8ggL
16ggL
16ggJJ
8ggL
16ffL
16ggJJ
=
2aa
=||
8aaL
16aaL
16aaJJ
8aaL
16bbL
16aaJJ
=
8ggL
16ggL
16ggJJ
8ggL
16bbL
16aaJJ
=
8ggL
16ggL
16ggJJ
8ffL
16eeL
16ddJJ
=
2cc
!!linebreak:original
=||
8aaL
16aaL
16aaJJ
8aaL
16bbL
16aaJJ
=
8ggL
16ggL
16ggJJ
8ggL
16bbL
16aaJJ
=
8ggL
16ggL
16ggJJ
8ffL
16eeL
16ddJJ
=
2cc
=||
*-
